X: 20
T:Miss Popple's Reel
S:Reel
M:C|
L:1/8
K:Hp
B2 f>d B>df>d | c>ea>f g>ed>c | B2 f>d (3Bcdf>d | c>ea>c B4 :|
g2 e>f g>ea>g | f2 d>e f>dg>f | e2 c>d e>cf>e | d(ee)(f f)d3 |
g>ee>f g>ea>g | f>dd>e f>dg>f | e>cc>d e>cf>e | dcc(d d4) :|

